!!!COM: Claude Debussy
!!!CNT: Francais
!!!TXO: Francais
!!!OPR: Ariettes Oublie/es
!!!ONM: No. 2
!!!OTL: Il Pleure dans mon Coeur
!!!LYR: Paul Verlaine
!!!ENC: Jacob Pegg
!!!YOR: Claude Debussy: Songs 1880-1904, Edited by Rita Benton
!!!YOR: New York: Dover publications, inc., 1981
!!!YOR: ISBN 0-486-24131-9
!!!ODT: 1887/
!!NB: Vocal melody and text only encoded.
!!NB: First instance of melodic material only encoded.
**kern	**silbe
*clef G2	*
*k[f#c#g#d#a#]	*
*M3/4	*
*MM[allegro]	*
!! created: 6/25/03 22:50
!! last edited: 7/10/03 11:32
!! time (min) : input notes 22, words 7.  check : notes 7, words 3.
!! total edit time: about 44 min.
=4	=4
4r	.
4r	.
{4g#	{Il
=5	=5
2.b	pleu-
=6	=6
4g#	-re
4g#	dans
4g#	mon
=7	=7
2b}	coeur}
{8g#	{Comme
8g#	il
=8	=8
4b	pleut
4g#	sur
4d#	la
=9	=9
[2.dn	vil-
=10	=10
4dn]}	-le.}
4r	.
4r	.
=11	=11
4r	.
{4c#	{Quelle
4e	est
=12	=12
4fn	cet-
4f#	-te
4cc#	lan-
=13	=13
2.cc#}	-gueur}
=14	=14
{(2gg#	{Qui
4ff#)	pe/-
=15	=15
(4ff#	-ne\-
4ee	|
[4cc#)	|
=16	=16
4cc#]	|
4b	-tre
4g#	mon
=17	=17
2.e	coeur?
=18	=18
4d#}	|}
4r	.
4r	.
!!19-22 rest	
=23	=23
{(4dd#	{O
4ee#	bruit
4dd#	doux
=24	=24
4cc#	de
8b	la
8cc#)	|
[4dd#	plui-
=25	=25
4dd#]}	-e,}
{4gg#	{Par
4ff#	terre
=26	=26
4ee#	et
4dd#	sur
4b	les
=27	=27
[2.b	toits!
=28	=28
4b]}	|}
4r	.
4r	.
=29	=29
2r	.
4r	.
=30	=30
4r	.
2r	.
=31	=31
4r	.
{4cc#	{Pour
4a#	un
=32	=32
4g#	coeur
4f#	qui
4c#	s'en-
=33	=33
[2e	-nui-
4e]}	-e,}
=34	=34
{2g#	{O
4d#	le
=35	=35
2.e	bruit
=36	=36
2g#	de
4dd#	la
=37	=37
[2ee	pluie!
4ee]}	|}
=38	=38
4r	.
4r	.
{4cc#	{Il
=39	=39
2gg#	pleu-
[4ff#	-re
=40	=40
4ff#]	|
4dd#	sans
4b	rai-
=41	=41
2.b}	-son}
=42	=42
4r	.
{4gn	{Dans
4ddn	ce
=43	=43
2.ddn	coeur
=44	=44
2ccn	qui
4gn	s'e/-
=45	=45
[2.gn	-coeu-
=46	=46
4gn]	|
2f#}	-re.}
=47	=47
*MM[moderato]	*
*k[]	*
4r	.
{[4fn	{Quoi!
8fn]}	|}
8r	.
=48	=48
4r	.
{(8fn	{nul-
8fn	-le
8fn	tra-
8a	-hi-
=49	=49
4f)}	-son?}
4r	.
4r	.
=50	=50
4r	.
4r	.
{(4fn	{Ce
=51	=51
2.ffn)	deuil
=52	=52
4ddn	est
4ddn	sans
4ddn	rai-
=53	=53
[2.ddn	-son.
=54	=54
4ddn]}	|}
4r	.
4r	.
=55	=55
4r	.
2r	.
=56	=56
2r	.
4r	.
!!57-58 repeat of 22-23	
=59	=59
*k[f#c#g#d#a#]	*
4r	.
{4gg#	{De
4ggn	ne
=60	=60
4ff#	sa-
4ee#	-voir
4een	pour-
=61	=61
4dd#}	-quoi,}
4r	.
{8g#	{Sans
8g#	a-
=62	=62
4b	-mour
4g#	et
4d#	sans
=63	=63
[2.dn	hai-
=64	=64
4dn]}	-ne}
4r	.
4r	.
=65	=65
4r	.
{4c#	{Mon
4e	coeur
=66	=66
4f#	a
4f#	tant
4cc#	de
=67	=67
[2.cc#	pei-
=68	=68
2.cc#_	|
=69	=69
(2.cc#]	|
=70	=70
*MM[allegro]	*
[2.d#)	-ne.
=71	=71
4d#]}	|}
4r	.
4r	.
*-	*-
